public/img/github-icon.svg

<svg width="48" height="48" viewBox="0 0 48 48" fill="none" xmlns="http://www.w3.org/2000/svg">
<path d="M24 5C21.5049 5 19.0342 5.50365 16.729 6.4822C14.4238 7.46074 12.3293 8.89502 10.565 10.7031C7.00178 14.3548 5 19.3075 5 24.4717C5 33.0782 10.453 40.3801 17.996 42.9698C18.946 43.1256 19.25 42.522 19.25 41.9963C19.25 41.5484 19.25 40.3217 19.25 38.7055C13.987 39.8738 12.866 36.0963 12.866 36.0963C11.992 33.8376 10.757 33.234 10.757 33.234C9.028 32.0267 10.89 32.0657 10.89 32.0657C12.79 32.202 13.797 34.0713 13.797 34.0713C15.45 37.031 18.243 36.1547 19.326 35.6874C19.497 34.4218 19.991 33.565 20.523 33.0782C16.305 32.5914 11.878 30.9168 11.878 23.4981C11.878 21.3368 12.6 19.6038 13.835 18.2213C13.645 17.7345 12.98 15.7094 14.025 13.0808C14.025 13.0808 15.621 12.555 19.25 15.0669C20.751 14.6385 22.385 14.4243 24 14.4243C25.615 14.4243 27.249 14.6385 28.75 15.0669C32.379 12.555 33.975 13.0808 33.975 13.0808C35.02 15.7094 34.355 17.7345 34.165 18.2213C35.4 19.6038 36.122 21.3368 36.122 23.4981C36.122 30.9363 31.676 32.5719 27.439 33.0587C28.123 33.6624 28.75 34.8501 28.75 36.661C28.75 39.2702 28.75 41.3732 28.75 41.9963C28.75 42.522 29.054 43.1451 30.023 42.9698C37.566 40.3606 43 33.0782 43 24.4717C43 21.9146 42.5086 19.3826 41.5537 17.0202C40.5989 14.6578 39.1993 12.5112 37.435 10.7031C35.6707 8.89502 33.5762 7.46074 31.271 6.4822C28.9658 5.50365 26.4951 5 24 5Z" fill="#00E0FF" fill-opacity="0.65"/>
<path d="M24 5C21.5049 5 19.0342 5.50365 16.729 6.4822C14.4238 7.46074 12.3293 8.89502 10.565 10.7031C7.00178 14.3548 5 19.3075 5 24.4717C5 33.0782 10.453 40.3801 17.996 42.9698C18.946 43.1256 19.25 42.522 19.25 41.9963C19.25 41.5484 19.25 40.3217 19.25 38.7055C13.987 39.8738 12.866 36.0963 12.866 36.0963C11.992 33.8376 10.757 33.234 10.757 33.234C9.028 32.0267 10.89 32.0657 10.89 32.0657C12.79 32.202 13.797 34.0713 13.797 34.0713C15.45 37.031 18.243 36.1547 19.326 35.6874C19.497 34.4218 19.991 33.565 20.523 33.0782C16.305 32.5914 11.878 30.9168 11.878 23.4981C11.878 21.3368 12.6 19.6038 13.835 18.2213C13.645 17.7345 12.98 15.7094 14.025 13.0808C14.025 13.0808 15.621 12.555 19.25 15.0669C20.751 14.6385 22.385 14.4243 24 14.4243C25.615 14.4243 27.249 14.6385 28.75 15.0669C32.379 12.555 33.975 13.0808 33.975 13.0808C35.02 15.7094 34.355 17.7345 34.165 18.2213C35.4 19.6038 36.122 21.3368 36.122 23.4981C36.122 30.9363 31.676 32.5719 27.439 33.0587C28.123 33.6624 28.75 34.8501 28.75 36.661C28.75 39.2702 28.75 41.3732 28.75 41.9963C28.75 42.522 29.054 43.1451 30.023 42.9698C37.566 40.3606 43 33.0782 43 24.4717C43 21.9146 42.5086 19.3826 41.5537 17.0202C40.5989 14.6578 39.1993 12.5112 37.435 10.7031C35.6707 8.89502 33.5762 7.46074 31.271 6.4822C28.9658 5.50365 26.4951 5 24 5Z" fill="url(#paint0_linear_3_143)" fill-opacity="0.8"/>
<defs>
<linearGradient id="paint0_linear_3_143" x1="24" y1="5" x2="24" y2="43" gradientUnits="userSpaceOnUse">
<stop stop-color="#55FFFF"/>
<stop offset="1" stop-color="#00ECFF" stop-opacity="0"/>
</linearGradient>
</defs>
</svg>

<svg width="48" height="48" fill="none" xmlns="http://www.w3.org/2000/svg"><path d="M24 5a18.61 18.61 0 0 0-7.271 1.482 18.976 18.976 0 0 0-6.164 4.221C7.002 14.355 5 19.308 5 24.472c0 8.606 5.453 15.908 12.996 18.498.95.156 1.254-.448 1.254-.974v-3.29c-5.263 1.168-6.384-2.61-6.384-2.61-.874-2.258-2.109-2.862-2.109-2.862-1.729-1.207.133-1.168.133-1.168 1.9.136 2.907 2.005 2.907 2.005 1.653 2.96 4.446 2.084 5.529 1.616.171-1.265.665-2.122 1.197-2.609-4.218-.487-8.645-2.161-8.645-9.58 0-2.161.722-3.894 1.957-5.277-.19-.486-.855-2.512.19-5.14 0 0 1.596-.526 5.225 1.986a17.494 17.494 0 0 1 4.75-.643c1.615 0 3.249.215 4.75.643 3.629-2.512 5.225-1.986 5.225-1.986 1.045 2.628.38 4.654.19 5.14 1.235 1.383 1.957 3.116 1.957 5.277 0 7.438-4.446 9.074-8.683 9.56.684.604 1.311 1.792 1.311 3.603v5.335c0 .526.304 1.15 1.273.974C37.566 40.36 43 33.078 43 24.472c0-2.557-.491-5.09-1.446-7.452a19.51 19.51 0 0 0-4.119-6.317 18.976 18.976 0 0 0-6.164-4.22A18.601 18.601 0 0 0 24 5Z" fill="#00E0FF" fill-opacity=".65"/><path d="M24 5a18.61 18.61 0 0 0-7.271 1.482 18.976 18.976 0 0 0-6.164 4.221C7.002 14.355 5 19.308 5 24.472c0 8.606 5.453 15.908 12.996 18.498.95.156 1.254-.448 1.254-.974v-3.29c-5.263 1.168-6.384-2.61-6.384-2.61-.874-2.258-2.109-2.862-2.109-2.862-1.729-1.207.133-1.168.133-1.168 1.9.136 2.907 2.005 2.907 2.005 1.653 2.96 4.446 2.084 5.529 1.616.171-1.265.665-2.122 1.197-2.609-4.218-.487-8.645-2.161-8.645-9.58 0-2.161.722-3.894 1.957-5.277-.19-.486-.855-2.512.19-5.14 0 0 1.596-.526 5.225 1.986a17.494 17.494 0 0 1 4.75-.643c1.615 0 3.249.215 4.75.643 3.629-2.512 5.225-1.986 5.225-1.986 1.045 2.628.38 4.654.19 5.14 1.235 1.383 1.957 3.116 1.957 5.277 0 7.438-4.446 9.074-8.683 9.56.684.604 1.311 1.792 1.311 3.603v5.335c0 .526.304 1.15 1.273.974C37.566 40.36 43 33.078 43 24.472c0-2.557-.491-5.09-1.446-7.452a19.51 19.51 0 0 0-4.119-6.317 18.976 18.976 0 0 0-6.164-4.22A18.601 18.601 0 0 0 24 5Z" fill="url(#a)" fill-opacity=".8"/><defs><linearGradient id="a" x1="24" y1="5" x2="24" y2="43" gradientUnits="userSpaceOnUse"><stop stop-color="#5FF"/><stop offset="1" stop-color="#00ECFF" stop-opacity="0"/></linearGradient></defs></svg>
